!!!COM: Music21
!!!OTL: waltz_Two-For-Joy
!!!OMV: waltz_Two-For-Joy
**kern
*clefG2
*k[]
*M3/4
=1
8.ccL
16ddJk
=
8.eeL
16ddJk
8.ccL
16ddJk
8.eeL
16ccJk
=
4dd
4b
4g
=
4cc
8.aL
16bJk
8.ccL
16aJk
=
4b
4g
4e
=
8.fL
16eJk
8.fL
16gJk
8.aL
16fJk
=
4e
4g
4cc
!!linebreak:original
=
16eeLL
16ffJ
8ggJ
8.eeL
16ddJk
8.eeL
16ccJk
=
2dd
8.ccL
16ddJk
=
8.eeL
16ddJk
8.ccL
16ddJk
8.eeL
16ccJk
=
4dd
4b
4g
=
4cc
8.aL
16bJk
8.ccL
16aJk
=
4b
4g
4e
=
8.fL
16eJk
8.fL
16gJk
8.aL
16fJk
!!linebreak:original
=
4e
4g
8.ccL
16ddJk
=
8.eeL
16ddJk
8.ccL
16ddJk
8.ccL
16bJk
=
2cc
8.ccL
16bJk
=||
4a
4.ee
8ff
=
8.eeL
16ddJk
8.ddL
16ccJk
8.ccL
16bJk
=
8.bL
16aJk
8.g#XL
16aJk
8.bL
16ccJk
=
2b
8.aL
16bJk
!!linebreak:original
=
4cc
8.ccL
16ddJk
8.ccL
16bJk
=
8.ccL
16bJk
8.aL
16bJk
8.ccL
16ddJk
=
8.eeL
16ddJk
8.ccL
16bJk
8.aL
16bJk
=
2g#X
4ee
=
8.ffL
16eeJk
8.ddL
16ccJk
8.bL
16aJk
=
4g#X
4.ee
8ff
=
4ee
4b
8.ddL
16eeJk
!!linebreak:original
=
8.ddL
16ccJk
4.a
8b
=
4cc
4e
8.ccL
16ddJk
=
8.ccL
16bJk
4.g#X
8a
=
8.bL
16ccJk
8.ddL
16ccJk
12bL
12a
12g#XJ
=
2a
4ryy
=||
*-
